!!!OTL: Mianxiang sijige
!!!ARE: Asia, China,ÿShandong Boxing
!! III, 331
!!!SCT: C1760
!!!YEM: Copyright 1995, estate of Helmut Schaffrath.
**kern
*ICvox
*Ivox
*M2/4
*k[f#]
*G:
{8ee
16ee
16b
4ee
=1
4gg
8ee
8dd
=2
16dd
16a
8b
4r}
=3
{8.dd
16ee
8gg
8aa
=4
16ee
16dd
16dd
16a
4b}
=5
{16dd
8dd
16ee
8gg
16ee
16dd
=6
16dd
8dd
16gg
16ee
16dd
16b
16a
=7
16b
8g
16a
8b
8ff#
=8
16ff#
16ff#
16ff#
16dd
4ee}
==
!!!AGN: Xiaodiao
!!!AMT: simple duple
!!!AIN: vox
!!!EED: Helmut Schaffrath
!!!EEV: 1.0
*-
